X: 9392
T: Dandy Dancer, The
R: jig
M: 6/8
K: Gmajor
|:d2 c|B2 G GFG|D2 G BAG|cAA eAA|fed cBA|
BGG GFG|DGG BAG|c2 A fd/e/f|g3-:|
|:g2 f|gdB GBd|gfe dcB|cAA eAA|f2 d cAf|
gdB GB/c/d|gfe dcB|cAA fef|g3:|

